file-chart-outline.svg

<svg fill="currentColor" viewBox="0 0 24 24"><path d="M14 2H6c-1.1 0-2 .9-2 2v16c0 1.1.9 2 2 2h12c1.1 0 2-.9 2-2V8zm4 18H6V4h7v5h5zm-9-7v6H7v-6zm6 2v4h2v-4zm-4-4v8h2v-8z"/></svg>

<svg  viewBox="0 0 24 24" fill="currentColor"><path  d="M14 2H6C4.9 2 4 2.9 4 4V20C4 21.1 4.9 22 6 22H18C19.1 22 20 21.1 20 20V8L14 2M18 20H6V4H13V9H18V20M9 13V19H7V13H9M15 15V19H17V15H15M11 11V19H13V11H11Z"/></svg>
